X: 40075
T: Thrush In The Storm, The
R: reel
M: 4/4
K: Dmajor
FAAF ABde|fgfe dBBA|dBAF ABAF|~E2 FE DB, B,D|
FAAF ABde|fgfe dBBA|dBAF ABde|afeg fdd2:|
fedf edBc|d2 fd BAFA|DF ~F2 DFFA|fedf edBd|
fedf edBc|d2 fd BAFA|DF ~F2 DFFA|afeg fdd2:|

